plasma/desktoptheme/Monochrome/icons/ktorrent.svg

<svg width="32" height="32" version="1" xmlns="http://www.w3.org/2000/svg">
 <g id="22-22-ktorrent" transform="translate(32,10)">
  <rect width="22" height="22" style="opacity:.00100002"/>
  <path d="M 8.6953125,3 C 8.3523605,3 8.0433531,3.3617296 8,3.8066406 V 10 H 4 l 7,7 7,-7 H 14 V 3.8066406 C 14,3.3597156 13.64764,3 13.304688,3 Z M 11,17 H 3.8007813 C 3.3575813,17 3,17.446 3,18 c 0,0.554 0.3575813,1 0.8007813,1 H 18.199219 C 18.642419,19 19,18.554 19,18 19,17.446 18.642419,17 18.199219,17 Z" style="fill:#aaaaac"/>
 </g>
 <g id="ktorrent">
  <rect width="32" height="32" style="opacity:.00100002"/>
  <g>
   <path d="m11.443 3c-0.6 0-1.367 0.6335-1.443 1.4121v10.588h-6l12 12 12-12h-6v-10.588c0-0.782-0.843-1.412-1.443-1.412h-9.114zm-8.0426 25c-0.7756 0-1.4004 0.669-1.4004 1.5s0.6248 1.5 1.4004 1.5h25.2c0.775 0 1.4-0.669 1.4-1.5s-0.625-1.5-1.4-1.5z" style="opacity:.2"/>
   <path d="m11.443 2c-0.6 0-1.367 0.6335-1.443 1.4121v10.588h-6l12 12 12-12h-6v-10.588c0-0.782-0.843-1.412-1.443-1.412h-9.114zm-8.0426 25c-0.7756 0-1.4004 0.669-1.4004 1.5s0.6248 1.5 1.4004 1.5h25.2c0.775 0 1.4-0.669 1.4-1.5s-0.625-1.5-1.4-1.5z" style="fill:#358de7"/>
   <path d="m11.443 2c-0.6 0-1.367 0.6335-1.443 1.4121v1c0.076-0.7786 0.843-1.4121 1.443-1.4121h9.114c0.6 0 1.443 0.63 1.443 1.4121v-1c0-0.7821-0.843-1.4121-1.443-1.4121zm-7.443 12 1 1h5v-1zm18 0v1h5l1-1zm-18.6 13c-0.7756 0-1.4004 0.669-1.4004 1.5 0 0.177 0.034 0.343 0.0859 0.5 0.1924-0.582 0.7039-1 1.3145-1h25.2c0.61 0 1.122 0.418 1.314 1 0.052-0.157 0.086-0.323 0.086-0.5 0-0.831-0.625-1.5-1.4-1.5h-12.6z" style="fill:#ffffff;opacity:.2"/>
  </g>
 </g>
</svg>

<svg xmlns="http://www.w3.org/2000/svg" width="32" height="32" version="1">
 <g id="22-22-ktorrent" transform="translate(32,10)">
  <rect style="opacity:0.001" width="22" height="22" x="0" y="0"/>
  <path style="fill:#aaaaac" d="M 8.6953125,3 C 8.3523605,3 8.0433531,3.3617296 8,3.8066406 V 10 H 4 l 7,7 7,-7 H 14 V 3.8066406 C 14,3.3597156 13.64764,3 13.304688,3 Z M 11,17 H 3.8007813 C 3.3575813,17 3,17.446 3,18 c 0,0.554 0.3575813,1 0.8007813,1 H 18.199219 C 18.642419,19 19,18.554 19,18 19,17.446 18.642419,17 18.199219,17 Z"/>
 </g>
 <g id="ktorrent">
  <rect width="32" height="32" x="0" y="0" style="opacity:0.001"/>
  <g>
   <path style="opacity:0.2" d="M 11.443,3 C 10.843,3 10.076,3.6335 10,4.4121 v 10.588 H 4 l 12,12 12,-12 H 22 V 4.4121 c 0,-0.782 -0.843,-1.412 -1.443,-1.412 H 11.443 Z M 3.4004,28 C 2.6248,28 2,28.669 2,29.5 2,30.331 2.6248,31 3.4004,31 h 25.2 c 0.775,0 1.4,-0.669 1.4,-1.5 0,-0.831 -0.625,-1.5 -1.4,-1.5 z"/>
   <path style="fill:#358de7" d="M 11.443,2 C 10.843,2 10.076,2.6335 10,3.4121 v 10.588 H 4 l 12,12 12,-12 H 22 V 3.4121 c 0,-0.782 -0.843,-1.412 -1.443,-1.412 H 11.443 Z M 3.4004,27 C 2.6248,27 2,27.669 2,28.5 2,29.331 2.6248,30 3.4004,30 h 25.2 c 0.775,0 1.4,-0.669 1.4,-1.5 0,-0.831 -0.625,-1.5 -1.4,-1.5 z"/>
   <path style="opacity:0.2;fill:#ffffff" d="M 11.443,2 C 10.843,2 10.076,2.6335 10,3.4121 v 1 C 10.076,3.6335 10.843,3 11.443,3 h 9.114 C 21.157,3 22,3.63 22,4.4121 v -1 C 22,2.63 21.157,2 20.557,2 Z M 4,14 5,15 h 5 v -1 z m 18,0 v 1 h 5 l 1,-1 z M 3.4,27 c -0.7756,0 -1.4004,0.669 -1.4004,1.5 0,0.177 0.034,0.343 0.0859,0.5 C 2.2779,28.418 2.7894,28 3.4,28 h 25.2 c 0.61,0 1.122,0.418 1.314,1 C 29.966,28.843 30,28.677 30,28.5 30,27.669 29.375,27 28.6,27 H 16 Z"/>
  </g>
 </g>
</svg>
